assets/icons/emote/kiss.svg

<?xml version="1.0" encoding="UTF-8" standalone="no"?>
<svg viewBox="0 0 24 24" width="24" height="24" version="1.1" id="svg8" sodipodi:docname="kiss.svg" inkscape:version="1.1 (ce6663b3b7, 2021-05-25)"
   xmlns:inkscape="http://www.inkscape.org/namespaces/inkscape"
   xmlns:sodipodi="http://sodipodi.sourceforge.net/DTD/sodipodi-0.dtd"
   xmlns="http://www.w3.org/2000/svg"
   xmlns:svg="http://www.w3.org/2000/svg"
   xmlns:rdf="http://www.w3.org/1999/02/22-rdf-syntax-ns#"
   xmlns:cc="http://creativecommons.org/ns#"
   xmlns:dc="http://purl.org/dc/elements/1.1/">
   <metadata id="metadata14">
      <rdf:RDF>
         <cc:Work rdf:about="">
            <dc:format>image/svg+xml</dc:format>
            <dc:type rdf:resource="http://purl.org/dc/dcmitype/StillImage" />
         </cc:Work>
      </rdf:RDF>
   </metadata>
   <defs id="defs12" />
   <sodipodi:namedview pagecolor="#ffffff" bordercolor="#666666" borderopacity="1" objecttolerance="10" gridtolerance="10" guidetolerance="10" inkscape:pageopacity="0" inkscape:pageshadow="2" inkscape:window-width="1920" inkscape:window-height="1016" id="namedview10" showgrid="true" inkscape:zoom="27.5" inkscape:cx="2.4181818" inkscape:cy="8.1272727" inkscape:window-x="0" inkscape:window-y="27" inkscape:window-maximized="1" inkscape:current-layer="svg8" inkscape:pagecheckerboard="0">
      <inkscape:grid type="xygrid" id="grid1454" />
   </sodipodi:namedview>
   <path id="path1449" style="fill:#808080;fill-opacity:1;stroke-width:1" d="m 10.866066,12.234204 c -0.538285,0.01257 -1.1428576,0.413625 -1.1428576,1.337054 0,0.697142 -0.3835713,0.878088 -1.1607136,0.984373 0.7759999,0.201144 1.1808036,1.551573 1.1808036,2.017858 -0.00337,1.123428 1.0256246,1.406143 2.2656246,1.410714 1.241143,0.0069 2.311518,-0.317714 2.305803,-1.428571 -0.0034,-0.618286 0.398197,-1.846428 1.122768,-2.017857 -0.6,-0.072 -1.142857,-0.06071 -1.142857,-0.946428 0,-0.488 -0.312339,-1.334286 -1.033482,-1.357143 -0.469714,-0.01486 -0.894232,0.152857 -1.216518,0.392857 -0.321142,-0.24 -0.71,-0.404285 -1.178571,-0.392857 z m 1.189732,2.283481 c 0.369,0.0081 0.749125,0.121588 1.095982,0.314734 -0.194286,0.09143 -0.363786,0.182266 -0.366072,0.310266 -0.02057,0.308572 -0.429517,0.550251 -0.770088,0.549107 -0.340572,-0.0011 -0.678572,-0.240535 -0.678572,-0.549107 0,-0.128 -0.126267,-0.216553 -0.310267,-0.310266 0.302856,-0.225716 0.660016,-0.322848 1.029017,-0.314734 z" />
   <path style="fill:#808080;fill-opacity:1;stroke-width:1" d="m 15.049315,8.8750147 c 0.9175,0 2.127871,0.575625 1.911621,1.6406253 -0.39625,1.944999 -0.66,-1.1971293 -3.75,-0.275879 0,-1.0837502 0.919629,-1.3647463 1.838379,-1.3647463 z" id="path1447" />
   <path style="fill:#808080;fill-opacity:1;stroke-width:1" d="m 8.8749995,8.8750147 c 0.9187499,0 1.8359375,0.2809961 1.8359375,1.3647463 -3.1999999,-0.7550003 -3.0224999,2.110878 -3.7499998,0.275879 -0.4,-1.0087503 0.9965624,-1.6406253 1.9140623,-1.6406253 z" id="path1445" />
   <path id="path993" style="fill:#808080;fill-opacity:1;fill-rule:evenodd;stroke:none;stroke-width:0.75;stroke-linecap:square;stroke-linejoin:round;stroke-opacity:1" d="m 11.953613,2.6250152 a 9.3749993,9.3749993 0 0 0 -9.328613,9.3749988 9.3749993,9.3749993 0 0 0 9.374999,9.374999 9.3749993,9.3749993 0 0 0 9.375001,-9.374999 9.3749993,9.3749993 0 0 0 -9.375001,-9.3749988 9.3749993,9.3749993 0 0 0 -0.04639,0 z m 0.04639,1.2499999 a 8.1249994,8.1249994 0 0 1 8.125,8.1249989 8.1249994,8.1249994 0 0 1 -8.125,8.124999 8.1249994,8.1249994 0 0 1 -8.1249994,-8.124999 8.1249994,8.1249994 0 0 1 8.1249994,-8.1249989 z" />
</svg>

<svg width="24" height="24" xmlns="http://www.w3.org/2000/svg"><path style="fill:gray;fill-opacity:1;stroke-width:1" d="M10.866 12.234c-.538.013-1.143.414-1.143 1.337 0 .697-.383.878-1.16.985.775.2 1.18 1.551 1.18 2.017-.003 1.124 1.026 1.407 2.266 1.411 1.241.007 2.311-.318 2.306-1.428-.004-.619.398-1.847 1.122-2.018-.6-.072-1.142-.06-1.142-.947 0-.488-.313-1.334-1.034-1.357a1.944 1.944 0 0 0-1.216.393 1.855 1.855 0 0 0-1.179-.393zm1.19 2.284a2.39 2.39 0 0 1 1.096.314c-.195.092-.364.183-.366.31-.02.31-.43.55-.77.55-.341-.001-.679-.24-.679-.55 0-.127-.126-.216-.31-.31.303-.225.66-.322 1.029-.314zm2.994-5.643c.917 0 2.127.576 1.91 1.64-.395 1.946-.66-1.196-3.75-.275 0-1.084.92-1.365 1.84-1.365zm-6.175 0c.919 0 1.836.281 1.836 1.365-3.2-.755-3.023 2.11-3.75.276-.4-1.01.996-1.641 1.914-1.641z"/><path style="fill:gray;fill-opacity:1;stroke:none;stroke-width:.75;stroke-linecap:square;stroke-linejoin:round;stroke-opacity:1" d="M11.954 2.625A9.375 9.375 0 0 0 2.625 12 9.375 9.375 0 0 0 12 21.375 9.375 9.375 0 0 0 21.375 12 9.375 9.375 0 0 0 12 2.625a9.375 9.375 0 0 0-.046 0zM12 3.875A8.125 8.125 0 0 1 20.125 12 8.125 8.125 0 0 1 12 20.125 8.125 8.125 0 0 1 3.875 12 8.125 8.125 0 0 1 12 3.875z"/></svg>
